X:4104
L:1/4
Q:3/4=100
M:6/4
K:Amin
 e | a2 e e2 d | c3 A2 B | c3/2 d/ e e3/2 f/ d | e3 E2 || e/f/ | g2 g (g a) g | g2 d d2 e | 
 (f g) f e2 d | d3 c2 d | (e f) e e2 A | (d e) d d2 B | (c B) A e2 E | A3 A,2 |]

